newicons/emoji_bookmark_tabs.svg

<?xml version="1.0" encoding="UTF-8" standalone="no"?>
<svg
   version="1.2"
   viewBox="0 0 48 48"
   id="svg12"
   xmlns="http://www.w3.org/2000/svg"
   xmlns:svg="http://www.w3.org/2000/svg">
  <defs
     id="defs1" />
  <path
     d="M 36.566972,17.205199 V 9.0023681 h -7.456404"
     fill="none"
     stroke="#ffffff"
     stroke-linecap="round"
     stroke-linejoin="round"
     stroke-width="1"
     id="path1"
     style="stroke-width:1;stroke-dasharray:none" />
  <path
     d="m 10.036698,39.021236 v 3.490566 h 26.530274 v -8.146981"
     fill="none"
     stroke="#ffffff"
     stroke-linecap="round"
     stroke-linejoin="round"
     stroke-width="1"
     id="path2"
     style="stroke-width:1;stroke-dasharray:none" />
  <path
     d="M 33.076147,30.643878 V 12.967652 L 25.619744,5.5118029 H 6.5458715 V 39.021236 H 33.076147 v -4.886792"
     fill="none"
     stroke="#ffffff"
     stroke-linecap="round"
     stroke-linejoin="round"
     stroke-width="1"
     id="path3"
     style="stroke-width:1;stroke-dasharray:none" />
  <path
     d="m 33.076147,13.191048 h -7.470368 l 0.01396,-7.6792451"
     fill="none"
     stroke="#ffffff"
     stroke-linecap="round"
     stroke-linejoin="round"
     stroke-width="1"
     id="path4"
     style="stroke-width:1;stroke-dasharray:none" />
  <path
     d="m 36.252799,20.870294 -1.284625,-1.731322 1.284625,-1.73132 h 5.20133 v 3.462642 h -5.20133"
     fill="none"
     stroke="#ffffff"
     stroke-linecap="round"
     stroke-linejoin="round"
     stroke-width="1"
     id="path5"
     style="stroke-width:1;stroke-dasharray:none" />
  <path
     d="m 32.761972,34.10652 -1.284624,-1.731322 1.284624,-1.73132 h 5.20133 v 3.462642 h -5.20133"
     fill="none"
     stroke="#ffffff"
     stroke-linecap="round"
     stroke-linejoin="round"
     stroke-width="1"
     id="path6"
     style="stroke-width:1;stroke-dasharray:none" />
  <path
     d="M 36.566972,30.619444 V 20.950576"
     fill="none"
     stroke="#ffffff"
     stroke-linecap="round"
     stroke-linejoin="round"
     stroke-width="1"
     id="path7"
     style="stroke-width:1;stroke-dasharray:none" />
  <path
     d="M 9.9598985,9.3374631 H 20.306706"
     fill="none"
     stroke="#ffffff"
     stroke-linecap="round"
     stroke-linejoin="round"
     stroke-width="1"
     id="path8"
     style="stroke-width:1;stroke-dasharray:none" />
  <path
     d="M 9.9598985,15.2435 H 29.173403"
     fill="none"
     stroke="#ffffff"
     stroke-linecap="round"
     stroke-linejoin="round"
     stroke-width="1"
     id="path9"
     style="stroke-width:1;stroke-dasharray:none" />
  <path
     d="M 9.9598985,20.416519 H 29.173403"
     fill="none"
     stroke="#ffffff"
     stroke-linecap="round"
     stroke-linejoin="round"
     stroke-width="1"
     id="path10"
     style="stroke-width:1;stroke-dasharray:none" />
  <path
     d="M 9.9598985,26.329538 H 29.173403"
     fill="none"
     stroke="#ffffff"
     stroke-linecap="round"
     stroke-linejoin="round"
     stroke-width="1"
     id="path11"
     style="stroke-width:1;stroke-dasharray:none" />
  <path
     d="M 9.9598985,32.242558 H 29.173403"
     fill="none"
     stroke="#ffffff"
     stroke-linecap="round"
     stroke-linejoin="round"
     stroke-width="1"
     id="path12"
     style="stroke-width:1;stroke-dasharray:none" />
</svg>

<?xml version="1.0" encoding="UTF-8"?><svg id="a" xmlns="http://www.w3.org/2000/svg" viewBox="0 0 48 48"><defs><style>.n{fill:none;stroke:#fff;stroke-linecap:round;stroke-linejoin:round;}</style></defs><path id="b" class="n" d="M36.567,17.1934v-8.2028h-7.4564"/><path id="c" class="n" d="M10.0367,39.0094v3.4906h26.5303v-8.147"/><path id="d" class="n" d="M33.0761,30.6321V12.9558l-7.4564-7.4558H6.5459v33.5094h26.5303v-4.8868"/><path id="e" class="n" d="M33.0761,13.1792h-7.4704l.014-7.6792"/><path id="f" class="n" d="M36.2528,20.8585l-1.2846-1.7313,1.2846-1.7313h5.2013v3.4626h-5.2013"/><path id="g" class="n" d="M32.762,34.0947l-1.2846-1.7313,1.2846-1.7313h5.2013v3.4626h-5.2013"/><path id="h" class="n" d="M36.567,30.6076v-9.6689"/><path id="i" class="n" d="M9.9599,9.3257h10.3468"/><path id="j" class="n" d="M9.9599,15.2317h19.2135"/><path id="k" class="n" d="M9.9599,20.4047h19.2135"/><path id="l" class="n" d="M9.9599,26.3177h19.2135"/><path id="m" class="n" d="M9.9599,32.2308h19.2135"/></svg>
